X: 1
T: CROPPIES, LIE DOWN -- JIG
B: Ryan's Mammoth Collection of Fiddle Tunes
R: jig
M: 6/8
L: 1/8
Z: Contributed 20000913183614 by John Chambers John.Chambers:weema.com
K: G
vgue \
| vdBG GFG | ABA ABd | ("_fz"g2.e) dBd | gGG Gge \
|  dBG GFG | ABA ABd | ("_fz"g2.e) dBd |1 gGG G :|2 gGG G3 H[|]|]
|: vdef gfg | efg agf | gab efg | dBG (B2A) \
| vkG2z uke2z | vdBd GBd | kg2z ke2z |1dBg G3 :|2 dBg G |]
